X:194
T:Come Back to Erin
N:"Slow" "collected by J. O'Neill"
B:O'Neill's 194
Z:Transcribed by henrik.norbeck@mailbox.swipnet.se
M:C
L:1/8
K:Gmix
G2 cB c2 FG|B2 AF A2 G2|E2 FG A3 A|A2 dc Bc/B/ AA|
G2 cB c2 FG|B2 AF A2 BAG2|E2 FG A2 Bc|d2 AB c3 z"fine"||
E2 cB A2 DE|F2 ED D2 C2|B,2 BA G2 FE|G2 FF E3 z|
E2 dcB A2 DE|F2 EG B2 A2|c2 AF d2 BG|DDEF G3 F"D.C."||
